Simply-Blue-Circles/scalable/apps/feh.svg

<svg xmlns="http://www.w3.org/2000/svg" width="48" height="48" viewBox="0 0 12.7 12.7"><path d="M6.34.08A6.27 6.27 0 0 0 .08 6.34a6.27 6.27 0 0 0 6.26 6.27 6.27 6.27 0 0 0 6.27-6.27A6.27 6.27 0 0 0 6.34.08zM6.33 1A5.39 5.39 0 0 1 11.7 6.4a5.39 5.39 0 0 1-5.38 5.39 5.39 5.39 0 0 1-5.4-5.4 5.39 5.39 0 0 1 5.4-5.38zM2.07 4.58v3.54h.48V6.43h1.4v-.4h-1.4V4.98H4.1v-.4H2.07zm2.8 0v3.54h2.27v-.4h-1.8V6.43h1.69v-.4H5.34V4.98H7.1v-.4H4.86zm3.06 0v3.54h.48V6.43h1.74v1.69h.48V4.58h-.48v1.45H8.41V4.58h-.48z" fill="#2c89a0"/></svg>

<?xml version="1.0" encoding="UTF-8" standalone="no"?>
<svg
   xmlns:dc="http://purl.org/dc/elements/1.1/"
   xmlns:cc="http://creativecommons.org/ns#"
   xmlns:rdf="http://www.w3.org/1999/02/22-rdf-syntax-ns#"
   xmlns:svg="http://www.w3.org/2000/svg"
   xmlns="http://www.w3.org/2000/svg"
   xmlns:sodipodi="http://sodipodi.sourceforge.net/DTD/sodipodi-0.dtd"
   xmlns:inkscape="http://www.inkscape.org/namespaces/inkscape"
   width="48"
   height="48"
   viewBox="0 0 12.7 12.7"
   version="1.1"
   id="svg4"
   sodipodi:docname="feh.svg"
   inkscape:version="0.92.4 (5da689c313, 2019-01-14)">
  <metadata
     id="metadata10">
    <rdf:RDF>
      <cc:Work
         rdf:about="">
        <dc:format>image/svg+xml</dc:format>
        <dc:type
           rdf:resource="http://purl.org/dc/dcmitype/StillImage" />
        <dc:title></dc:title>
      </cc:Work>
    </rdf:RDF>
  </metadata>
  <defs
     id="defs8" />
  <sodipodi:namedview
     pagecolor="#ffffff"
     bordercolor="#666666"
     borderopacity="1"
     objecttolerance="10"
     gridtolerance="10"
     guidetolerance="10"
     inkscape:pageopacity="0"
     inkscape:pageshadow="2"
     inkscape:window-width="1087"
     inkscape:window-height="480"
     id="namedview6"
     showgrid="false"
     inkscape:zoom="4.9166667"
     inkscape:cx="2.1355932"
     inkscape:cy="24"
     inkscape:window-x="0"
     inkscape:window-y="25"
     inkscape:window-maximized="0"
     inkscape:current-layer="svg4" />
  <path
     d="M 6.34,0.08 A 6.27,6.27 0 0 0 0.08,6.34 6.27,6.27 0 0 0 6.34,12.61 6.27,6.27 0 0 0 12.61,6.34 6.27,6.27 0 0 0 6.34,0.08 Z M 6.33,1 A 5.39,5.39 0 0 1 11.7,6.4 5.39,5.39 0 0 1 6.32,11.79 5.39,5.39 0 0 1 0.92,6.39 5.39,5.39 0 0 1 6.32,1.01 Z M 2.07,4.58 V 8.12 H 2.55 V 6.43 h 1.4 V 6.03 H 2.55 V 4.98 H 4.1 v -0.4 z m 2.8,0 V 8.12 H 7.14 V 7.72 H 5.34 V 6.43 H 7.03 V 6.03 H 5.34 V 4.98 H 7.1 V 4.58 H 4.86 Z m 3.06,0 V 8.12 H 8.41 V 6.43 h 1.74 v 1.69 h 0.48 V 4.58 H 10.15 V 6.03 H 8.41 V 4.58 Z"
     id="path2"
     inkscape:connector-curvature="0"
     style="fill:#2c89a0" />
</svg>
